src/assets/tokens/Kim.svg

<svg fill="none" height="1163" viewBox="0 0 1163 1163" width="1163" xmlns="http://www.w3.org/2000/svg"><circle cx="581.073" cy="581.17" fill="#121212" r="581.045"/><path clip-rule="evenodd" d="m551.899 287.873v215.56c0 7.394 5.994 13.387 13.388 13.387s13.388-5.993 13.388-13.387v-215.56h265.961c16.422 0 29.734 13.312 29.734 29.734v256.168h-215.876c-7.394 0-13.388 5.994-13.388 13.388s5.994 13.389 13.388 13.389h215.876v244.182c0 16.42-13.312 29.733-29.734 29.733h-527.127c-16.421 0-29.733-13.313-29.733-29.733v-527.127c0-16.422 13.312-29.734 29.733-29.734zm26.776 374.306c0-7.394-5.994-13.388-13.388-13.388s-13.388 5.994-13.388 13.388v212.28h26.776z" fill="#ff4500" fill-rule="evenodd"/></svg>

<svg width="1163" height="1163" viewBox="0 0 1163 1163" fill="none" xmlns="http://www.w3.org/2000/svg">
  <circle cx="581.073" cy="581.17" r="581.045" fill="#121212"/>
  <path fill-rule="evenodd" clip-rule="evenodd" d="M551.899 287.873V503.433C551.899 510.827 557.893 516.82 565.287 516.82C572.681 516.82 578.675 510.827 578.675 503.433V287.873H844.636C861.058 287.873 874.37 301.185 874.37 317.607V573.775H658.494C651.1 573.775 645.106 579.769 645.106 587.163C645.106 594.557 651.1 600.552 658.494 600.552H874.37V844.734C874.37 861.154 861.058 874.467 844.636 874.467H317.509C301.088 874.467 287.776 861.154 287.776 844.734V317.607C287.776 301.185 301.088 287.873 317.509 287.873H551.899ZM578.675 662.179C578.675 654.785 572.681 648.791 565.287 648.791C557.893 648.791 551.899 654.785 551.899 662.179V874.459H578.675V662.179Z" fill="#FF4500"/>
</svg>
